icon-themes/colibre_svg/cmd/sc_deletecell.svg

<svg viewBox="0 0 16 16" xmlns="http://www.w3.org/2000/svg"><path d="m6 5v3.7636719c.00531-.2580641.109951-.5133771.3125-.7050781l1.8808594-1.7832032c.182534-.1736362.4238752-.2719906.6757812-.2753906.2702129-.0030983.5301792.1032836.7207032.2949219l1.3574222 1.3652343.949218-1.0273437.046875-.0527344c.13383-.1438161.307052-.2450326.498047-.2910156.162803-.1054334.265976-.2609611.480469-.3144531.402608-.1004035.731226-.0506972 1.009766.0566406.299324-.0501752.614768.0195164.851562.2441406l.216797.2070313v-1.4824219zm0 3.7636719v.2363281c0 .554-.446 1-1 1h-4v4h5.0292969c.0303802-.202293.1049023-.400001.2597656-.556641l1.3867187-1.402343v-.214844c-.0007527-.256042.0654996-.504241.1816407-.728516l-1.5742188-1.6152341c-.1944919-.1998707-.2885131-.4606859-.2832031-.71875z" fill="#fff"/><path d="m0 1v4c0-.554.446-1 1-1h4c.554 0 1 .446 1 1h4v1.7070312l1 1.0058594v-2.7128906h4.001953v1.484375l.998047.9492188v-2.4335938-4zm0 8v5.5c-.00038442.276301.22369855.500384.5.5h5.5976562c.025191-.09767.062408-.192168.1035157-.285156-.1516388-.214116-.2107188-.463395-.1738281-.712891h-5.02929692v-4.001953c-.55307435-.0010703-.99804688-.4466659-.99804688-1zm6 0c0 .554-.446 1-1 1v4h1v-4h.7871094l-.5039063-.5175781c-.1341578-.137868-.2032855-.3076729-.2421875-.4824219z" fill="#808080"/><path d="m1 5v4h4v-4z" fill="#eac282"/><path d="m16 14.149904-2.605902-2.651537 2.50749-2.7777726-1.807553-1.7205944-2.580554 2.6470643-2.632865-2.6470643-1.880616 1.7838805 2.632863 2.7031725-2.632863 2.660005 1.880616 1.852942 2.62981-2.77941 2.635919 2.77941z" fill="#e68497"/></svg>

<svg viewBox="0 0 16 16" xmlns="http://www.w3.org/2000/svg">
  <path
     d="M 6 5 L 6 8.7636719 C 6.00531 8.5056078 6.109951 8.2502948 6.3125 8.0585938 L 8.1933594 6.2753906 C 8.3758934 6.1017544 8.6172346 6.0034 8.8691406 6 C 9.1393535 5.9969017 9.3993198 6.1032836 9.5898438 6.2949219 L 10.947266 7.6601562 L 11.896484 6.6328125 L 11.943359 6.5800781 C 12.077189 6.436262 12.250411 6.3350455 12.441406 6.2890625 C 12.604209 6.1836291 12.707382 6.0281014 12.921875 5.9746094 C 13.324483 5.8742059 13.653101 5.9239122 13.931641 6.03125 C 14.230965 5.9810748 14.546409 6.0507664 14.783203 6.2753906 L 15 6.4824219 L 15 5 L 6 5 z M 6 8.7636719 L 6 9 C 6 9.554 5.554 10 5 10 L 1 10 L 1 14 L 6.0292969 14 C 6.0596771 13.797707 6.1341992 13.599999 6.2890625 13.443359 L 7.6757812 12.041016 L 7.6757812 11.826172 C 7.6750285 11.57013 7.7412808 11.321931 7.8574219 11.097656 L 6.2832031 9.4824219 C 6.0887112 9.2825512 5.99469 9.021736 6 8.7636719 z "
     style="fill:#ffffff" />
  <path
     style="fill:#808080"
     d="M 0,1 V 5 C 0,4.446 0.446,4 1,4 h 4 c 0.554,0 1,0.446 1,1 h 4 v 1.7070312 l 1,1.0058594 V 5 h 4.001953 V 6.484375 L 16,7.4335938 V 5 1 Z m 0,8 v 5.5 c -3.8442e-4,0.276301 0.22369855,0.500384 0.5,0.5 h 5.5976562 c 0.025191,-0.09767 0.062408,-0.192168 0.1035157,-0.285156 C 6.0495331,14.500728 5.9904531,14.251449 6.0273438,14.001953 H 0.99804688 V 10 C 0.44497253,9.9989297 0,9.5533341 0,9 Z m 6,0 c 0,0.554 -0.446,1 -1,1 v 4 H 6 V 10 H 6.7871094 L 6.2832031,9.4824219 C 6.1490453,9.3445539 6.0799176,9.174749 6.0410156,9 Z"
     />
  <path
     d="m1 5v4h4v-4z"
     fill="#eac282"
     />
  <path
     style="fill:#e68497"
     d="M 16,14.149904 13.394098,11.498367 15.901588,8.7205944 14.094035,7 11.513481,9.6470643 8.880616,7 7,8.7838805 9.632863,11.487053 7,14.147058 8.880616,16 11.510426,13.22059 14.146345,16 Z"
     />
</svg>
